src/assets/svg/icons/postman-icon.svg

<svg width="80px" height="80px" viewBox="0 0 101 101" fill="none" xmlns="http://www.w3.org/2000/svg">
<path d="M90.3339 20.3309C84.2893 12.5036 76.0592 6.64461 66.6846 3.49497C57.3099 0.345337 47.2118 0.0465212 37.6673 2.63632C28.1228 5.22611 19.5607 10.5882 13.0639 18.0444C6.56699 25.5006 2.4272 34.716 1.16806 44.5251C-0.0910856 54.3342 1.58698 64.2965 5.99001 73.1518C10.3931 82.0072 17.3233 89.3579 25.9042 94.2744C34.4852 99.1908 44.3314 101.452 54.1976 100.772C64.0638 100.093 73.5068 96.5022 81.3324 90.4553C103.176 73.5742 107.207 42.1823 90.3323 20.3309H90.3339Z" fill="#FF6C37"/>
<path d="M67.6245 32.7496L46.542 53.9994L40.5842 47.8744C61.3339 27.1246 63.4167 28.9996 67.626 32.7496H67.6245Z" fill="white"/>
<path d="M46.5421 54.5806C46.3553 54.576 46.1771 54.5019 46.0421 54.3728L40.0421 48.3728C39.907 48.233 39.8315 48.0462 39.8315 47.8517C39.8315 47.6573 39.907 47.4705 40.0421 47.3307C60.4998 26.873 63.2919 27.8308 68.1247 32.2058C68.2056 32.2705 68.2703 32.3533 68.3137 32.4474C68.3571 32.5415 68.378 32.6444 68.3747 32.748C68.4059 32.9511 68.3278 33.1589 68.1669 33.2902L47.0843 54.3743C46.9364 54.5099 46.7426 54.5842 46.5421 54.5822V54.5806ZM41.6249 47.8728L46.5421 52.79L66.5419 32.7902C65.8514 31.9248 64.866 31.3443 63.7744 31.1598C62.6827 30.9753 61.5613 31.1998 60.6248 31.7902C56.9998 33.4152 51.167 38.3729 41.6249 47.8728Z" fill="#FF6C37"/>
<path d="M52.5841 59.8741L46.8341 53.9992L67.9168 33.1652C73.584 38.7073 65.1669 47.9571 52.5841 59.8726V59.8741Z" fill="white"/>
<path d="M52.5842 60.6243C52.3998 60.6096 52.2247 60.5369 52.0842 60.4165L46.2093 54.6665C46.1212 54.4529 46.1212 54.213 46.2093 53.9994C46.1468 53.824 46.1468 53.6325 46.2093 53.4572L67.2919 32.3746C67.4385 32.2369 67.6321 32.1602 67.8333 32.1602C68.0345 32.1602 68.2281 32.2369 68.3747 32.3746C69.0575 33.003 69.5969 33.7711 69.9563 34.6266C70.3157 35.4821 70.4866 36.4049 70.4575 37.3324C70.4575 42.9573 64.0404 50.04 53.1248 60.3743C52.979 60.5186 52.7871 60.6071 52.5827 60.6243H52.5842ZM47.9171 53.9994L52.6249 58.7056C60.9576 50.8306 68.9169 42.7057 68.9575 37.2058C69.0029 36.0398 68.6174 34.898 67.8747 33.998L47.9171 53.9994Z" fill="#FF6C37"/>
<path d="M40.7499 47.9994L44.9171 52.1666C44.9437 52.19 44.965 52.2189 44.9795 52.2512C44.9941 52.2835 45.0017 52.3186 45.0017 52.3541C45.0017 52.3895 44.9941 52.4246 44.9795 52.4569C44.965 52.4893 44.9437 52.5181 44.9171 52.5416L36.125 54.4166C35.9475 54.4549 35.7623 54.4341 35.5977 54.3575C35.4331 54.2808 35.2981 54.1525 35.2132 53.992C35.1283 53.8316 35.0981 53.6477 35.1273 53.4685C35.1565 53.2893 35.2435 53.1246 35.375 52.9994L40.4999 47.9166C40.4999 47.9166 40.6671 47.9166 40.7499 47.9994Z" fill="white"/>
<path d="M35.9171 55.2494C35.6393 55.2459 35.367 55.1713 35.1263 55.0326C34.8856 54.8939 34.6845 54.6958 34.5421 54.4572C34.3819 54.155 34.3238 53.8091 34.3764 53.4712C34.4291 53.1332 34.5897 52.8214 34.8343 52.5822L39.917 47.4573C40.1003 47.2935 40.3376 47.2029 40.5834 47.2029C40.8293 47.2029 41.0665 47.2935 41.2498 47.4573L45.417 51.6244C45.6638 51.8588 45.7607 52.2135 45.667 52.5416C45.5732 52.8697 45.2982 53.1307 44.9592 53.2088L36.1671 55.0838L35.9171 55.2494ZM40.5842 48.9167L35.8765 53.6244L43.6685 51.9572L40.5842 48.9167Z" fill="#FF6C37"/>
<path d="M78.8341 21.0403C75.8185 18.1309 71.0809 18.009 67.9184 20.7543C64.7559 23.4996 64.2152 28.2121 66.6778 31.6027C69.1403 34.9933 73.7825 35.9433 77.3763 33.7901L71.709 28.123L78.8341 21.0403Z" fill="white"/>
<path d="M73.2091 35.7058C71.4765 35.6836 69.7888 35.1521 68.3562 34.1774C66.9237 33.2027 65.8096 31.828 65.1528 30.2246C64.4966 28.6224 64.3244 26.863 64.6576 25.164C64.9909 23.4649 65.8149 21.9009 67.0278 20.6653C68.696 19.0278 70.9402 18.1104 73.2778 18.1104C75.6154 18.1104 77.8597 19.0278 79.5278 20.6653C79.6872 20.7997 79.7778 20.9981 79.7778 21.2075C79.7775 21.3105 79.7549 21.4122 79.7118 21.5058C79.6687 21.5993 79.6059 21.6825 79.5278 21.7497L72.7778 28.1246L77.9028 33.1668C77.9859 33.2461 78.0482 33.3445 78.0845 33.4535C78.1207 33.5624 78.1297 33.6786 78.1107 33.7918C78.0983 33.901 78.0621 34.0062 78.0046 34.0999C77.9471 34.1936 77.8697 34.2735 77.7778 34.334C76.401 35.1946 74.8182 35.6694 73.195 35.709L73.2091 35.7058ZM73.2091 19.5388C70.2403 19.5544 67.5841 21.3403 66.47 24.07C65.356 26.7996 65.9622 29.9418 68.0435 32.0387C69.0787 33.0799 70.4042 33.7842 71.8465 34.0594C73.2887 34.3346 74.7804 34.1678 76.1263 33.5808L71.2091 28.6637C71.1309 28.6012 71.0678 28.5219 71.0244 28.4317C70.9811 28.3415 70.9586 28.2427 70.9586 28.1426C70.9586 28.0425 70.9811 27.9437 71.0244 27.8535C71.0678 27.7633 71.1309 27.684 71.2091 27.6215L77.7091 21.0794C76.417 20.0891 74.837 19.5476 73.2091 19.5372V19.5388Z" fill="#FF6C37"/>
<path d="M78.9588 21.1653L71.834 28.248L77.5011 33.9151C78.0714 33.5877 78.6025 33.1961 79.0838 32.748C80.5691 31.178 81.3863 29.0924 81.363 26.9313C81.3397 24.7703 80.4777 22.7028 78.9588 21.1653Z" fill="white"/>
<path d="M77.3746 34.5402C77.281 34.5452 77.1875 34.5292 77.1009 34.4932C77.0144 34.4572 76.937 34.4023 76.8746 34.3324L71.2074 28.6652C71.1293 28.6027 71.0662 28.5234 71.0228 28.4332C70.9794 28.343 70.9569 28.2442 70.9569 28.1441C70.9569 28.044 70.9794 27.9452 71.0228 27.855C71.0662 27.7648 71.1293 27.6855 71.2074 27.623L78.2902 20.6653C78.3586 20.5621 78.4515 20.4775 78.5605 20.419C78.6696 20.3605 78.7914 20.3298 78.9152 20.3298C79.039 20.3298 79.1608 20.3605 79.2698 20.419C79.3789 20.4775 79.4718 20.5621 79.5402 20.6653C80.3717 21.4799 81.0322 22.4524 81.4832 23.5256C81.9342 24.5987 82.1664 25.7511 82.1664 26.9152C82.1664 28.0793 81.9342 29.2317 81.4832 30.3049C81.0322 31.3781 80.3717 32.3505 79.5402 33.1652C79.0497 33.6854 78.4885 34.1341 77.873 34.498C77.718 34.5761 77.5389 34.5912 77.373 34.5402H77.3746ZM72.7918 28.1246L77.4996 32.8324C77.8234 32.6054 78.13 32.3547 78.4168 32.0824C79.8007 30.7022 80.5802 28.8291 80.5839 26.8746C80.5871 25.1255 79.9496 23.4357 78.7917 22.1246L72.7918 28.1246Z" fill="#FF6C37"/>
<path d="M68.4997 33.6245C67.9353 33.0946 67.1903 32.7996 66.4161 32.7996C65.6419 32.7996 64.8969 33.0946 64.3325 33.6245L45.4592 52.4557L48.5842 55.6228L68.5419 38.1229C68.8462 37.8312 69.0877 37.4803 69.2513 37.0918C69.4149 36.7033 69.4973 36.2854 69.4933 35.8638C69.4894 35.4423 69.3992 35.026 69.2283 34.6406C69.0574 34.2552 68.8095 33.9089 68.4997 33.6229V33.6245Z" fill="white"/>
<path d="M48.4171 56.3743C48.2303 56.3697 48.052 56.2956 47.9171 56.1665L44.7499 52.9993C44.6148 52.8595 44.5393 52.6727 44.5393 52.4782C44.5393 52.2838 44.6148 52.097 44.7499 51.9572L63.6247 33.1651C64.1684 32.6221 64.8626 32.255 65.6175 32.1113C66.3723 31.9677 67.1529 32.0541 67.858 32.3594C68.5631 32.6647 69.1602 33.1748 69.5719 33.8236C69.9836 34.4724 70.1909 35.2299 70.1669 35.9979C70.1452 36.5192 70.0198 37.0309 69.7979 37.5031C69.576 37.9753 69.2622 38.3985 68.8747 38.7479L48.917 56.2477C48.7719 56.3505 48.5935 56.3951 48.4171 56.3727V56.3743ZM46.2093 52.4556L48.2921 54.5806L67.8747 37.5385C68.3591 37.1167 68.6481 36.5135 68.6669 35.8714C68.6856 35.2292 68.4325 34.6011 67.9591 34.1636C67.5219 33.7282 66.93 33.4837 66.313 33.4837C65.696 33.4837 65.1041 33.7282 64.6669 34.1636L46.2093 52.4556Z" fill="#FF6C37"/>
<path d="M30.8344 73.9148C30.7811 73.9873 30.7524 74.0749 30.7524 74.1648C30.7524 74.2548 30.7811 74.3424 30.8344 74.4148L31.6672 78.0398C31.7006 78.2531 31.669 78.4715 31.5764 78.6666C31.4839 78.8617 31.3348 79.0244 31.1485 79.1335C30.9628 79.2421 30.7475 79.289 30.5336 79.2673C30.3196 79.2457 30.118 79.1567 29.9579 79.0132L24.2501 73.5133L42.0421 55.5806H48.2092L52.3764 59.7477C45.876 65.4311 38.628 70.1978 30.8344 73.9148Z" fill="white"/>
<path d="M30.4594 80.0398C29.9875 80.0304 29.5219 79.8367 29.2094 79.4976L23.7516 74.0398C23.6735 73.9773 23.6104 73.898 23.567 73.8078C23.5236 73.7176 23.5011 73.6188 23.5011 73.5188C23.5011 73.4187 23.5236 73.3199 23.567 73.2297C23.6104 73.1395 23.6735 73.0602 23.7516 72.9977L41.6671 55.04C41.7674 54.9334 41.8985 54.8607 42.0421 54.8322H48.2498C48.4116 54.775 48.5881 54.775 48.7498 54.8322L52.917 58.9994C52.9962 59.0724 53.0565 59.1636 53.0927 59.2651C53.1289 59.3667 53.1399 59.4754 53.1248 59.5822C53.1277 59.6857 53.1067 59.7885 53.0633 59.8825C53.02 59.9766 52.9555 60.0594 52.8748 60.1243L52.542 60.4165C46.0154 65.8576 38.8349 70.4624 31.1672 74.1242L31.9594 77.4992C32.0206 77.7595 32.023 78.0303 31.9662 78.2917C31.9095 78.553 31.7952 78.7984 31.6315 79.01C31.4679 79.2215 31.2591 79.3939 31.0203 79.5145C30.7816 79.6351 30.519 79.7008 30.2516 79.707L30.4594 80.0398ZM25.3766 73.4977L30.2922 78.4554C30.338 78.4963 30.3972 78.5189 30.4586 78.5189C30.52 78.5189 30.5792 78.4963 30.625 78.4554C30.6556 78.4129 30.6721 78.3618 30.6721 78.3093C30.6721 78.2569 30.6556 78.2058 30.625 78.1632L29.7922 74.5383C29.7266 74.2781 29.7529 74.0033 29.8669 73.7603C29.9808 73.5174 30.1752 73.3214 30.4172 73.2055C37.8787 69.5926 44.8741 65.0873 51.2498 59.7884L47.8327 56.3712H42.2499L25.3766 73.4977Z" fill="#FF6C37"/>
<path d="M19.9595 77.7897L24.1266 73.6226L30.5438 80.0397L20.3361 79.3319C20.1608 79.3181 19.9944 79.2494 19.8605 79.1354C19.7266 79.0215 19.6321 78.8682 19.5906 78.6974C19.549 78.5266 19.5624 78.347 19.629 78.1843C19.6955 78.0215 19.8117 77.884 19.9611 77.7912L19.9595 77.7897Z" fill="white"/>
<path d="M30.6672 80.6647L20.5001 79.9569C19.897 79.9007 19.3782 79.4882 19.1657 78.9366C18.9532 78.3851 19.0829 77.7304 19.5001 77.2898L23.6672 73.1226C23.8071 72.9875 23.9939 72.912 24.1883 72.912C24.3828 72.912 24.5696 72.9875 24.7094 73.1226L31.0843 79.4976C31.1726 79.6185 31.2202 79.7643 31.2202 79.914C31.2202 80.0636 31.1726 80.2095 31.0843 80.3304C30.988 80.4862 30.8405 80.6038 30.6672 80.6632V80.6647ZM20.5001 78.3319L28.8328 78.8741L24.25 74.5819L20.5001 78.3319Z" fill="#FF6C37"/>
<path d="M48.7919 56.0837L40.3749 57.3758L45.2498 52.5431L48.7919 56.0837Z" fill="white"/>
<path d="M40.3749 58.165C40.235 58.1687 40.0972 58.1311 39.9785 58.0569C39.8599 57.9827 39.7657 57.8752 39.7077 57.7479C39.619 57.6271 39.5712 57.4812 39.5712 57.3314C39.5712 57.1816 39.619 57.0357 39.7077 56.915L44.5404 52.04C44.687 51.9023 44.8807 51.8256 45.0818 51.8256C45.283 51.8256 45.4766 51.9023 45.6232 52.04L49.1669 55.5807C49.2377 55.6929 49.2753 55.8229 49.2753 55.9557C49.2753 56.0884 49.2377 56.2184 49.1669 56.3307C49.1322 56.4675 49.0587 56.5914 48.9553 56.6876C48.852 56.7837 48.7231 56.8481 48.5841 56.8728L40.2515 58.165H40.3749ZM45.2498 53.6228L42.542 56.3307L47.2091 55.6228L45.2498 53.6228Z" fill="#FF6C37"/>
<path d="M48.792 56.0807L42.9171 56.8307C42.7599 56.8663 42.5953 56.8504 42.4479 56.7852C42.3004 56.7201 42.1779 56.6091 42.0985 56.4688C42.019 56.3285 41.9869 56.1664 42.0069 56.0064C42.0268 55.8464 42.0978 55.6971 42.2093 55.5807L45.2514 52.5385L48.792 56.0807Z" fill="white"/>
<path d="M42.7499 57.6244C42.4776 57.6218 42.2108 57.5472 41.9767 57.408C41.7426 57.2689 41.5495 57.0702 41.4171 56.8323C41.258 56.547 41.1963 56.2177 41.2414 55.8942C41.2866 55.5708 41.436 55.2709 41.6671 55.0401L44.7093 51.9979C44.8559 51.8602 45.0495 51.7835 45.2507 51.7835C45.4519 51.7835 45.6455 51.8602 45.7921 51.9979L49.3342 55.5401C49.4396 55.6399 49.5137 55.7681 49.5476 55.9092C49.5815 56.0503 49.5738 56.1982 49.5253 56.335C49.4769 56.4718 49.3898 56.5915 49.2746 56.6798C49.1594 56.7681 49.0211 56.821 48.8764 56.8323L43.0437 57.5823L42.7499 57.6244ZM42.7499 56.0823L47.1671 55.5401L45.2093 53.5823L42.7093 56.0823H42.7499ZM78.9996 25.9575C78.9211 25.826 78.7971 25.7279 78.6511 25.6818C78.505 25.6357 78.3472 25.6449 78.2074 25.7075C78.1385 25.7424 78.0772 25.7908 78.0273 25.8499C77.9774 25.9089 77.9398 25.9774 77.9168 26.0512C77.8704 26.2002 77.885 26.3614 77.9574 26.4996C78.2496 27.1137 78.1684 27.8403 77.7496 28.3746C77.6976 28.4261 77.6569 28.4878 77.63 28.5559C77.6031 28.6239 77.5906 28.6968 77.5934 28.7699C77.5949 28.9165 77.6505 29.0573 77.7496 29.1653C77.8565 29.2075 77.9755 29.2075 78.0824 29.1653C78.1794 29.1896 78.2813 29.187 78.3769 29.1575C78.4725 29.128 78.5582 29.0729 78.6246 28.9981C78.9677 28.578 79.185 28.0694 79.2513 27.5311C79.3177 26.9928 79.2304 26.4467 78.9996 25.9559V25.9575Z" fill="#FF6C37"/>
</svg>

<svg xmlns="http://www.w3.org/2000/svg" width="80" height="80" viewBox="0 0 101 101" fill="none" xmlns:v="https://vecta.io/nano"><style><![CDATA[.B{fill:#ff6c37}.C{fill:#fff}]]></style><path d="M90.334 20.331A50 50 0 0 0 37.667 2.636 50 50 0 0 0 1.168 44.525a50 50 0 0 0 24.736 49.749 50 50 0 0 0 28.293 6.498c9.866-.679 19.309-4.27 27.135-10.317 21.844-16.881 25.875-48.273 9-70.124h.002z" class="B"/><path d="M67.625 32.75l-21.082 21.25-5.958-6.125C61.334 27.125 63.417 29 67.626 32.75h-.002z" class="C"/><path d="M46.542 54.581a.75.75 0 0 1-.5-.208l-6-6a.75.75 0 0 1 0-1.042c20.458-20.458 23.25-19.5 28.083-15.125.081.065.146.147.189.242s.064.197.061.301c.031.203-.047.411-.208.542L47.084 54.374a.79.79 0 0 1-.542.208v-.002zm-4.917-6.708l4.917 4.917 20-20a4.5 4.5 0 0 0-5.917-1c-3.625 1.625-9.458 6.583-19 16.083z" class="B"/><path d="M52.584 59.874l-5.75-5.875 21.083-20.834c5.667 5.542-2.75 14.792-15.333 26.707v.002z" class="C"/><path d="M52.584 60.624c-.184-.015-.36-.087-.5-.208l-5.875-5.75c-.088-.214-.088-.453 0-.667-.062-.175-.062-.367 0-.542l21.083-21.083a.79.79 0 0 1 1.083 0 6.46 6.46 0 0 1 1.582 2.252c.359.855.53 1.778.501 2.706 0 5.625-6.417 12.708-17.333 23.042-.146.144-.338.233-.542.25h.002zm-4.667-6.625l4.708 4.706c8.333-7.875 16.292-16 16.333-21.5a4.75 4.75 0 0 0-1.083-3.208L47.917 53.999z" class="B"/><path d="M40.75 47.999l4.167 4.167c.027.023.048.052.062.085a.25.25 0 0 1 0 .206c-.014.032-.036.061-.062.085l-8.792 1.875c-.178.038-.363.017-.527-.059s-.3-.205-.385-.366-.115-.344-.086-.523.116-.344.248-.469l5.125-5.083s.167 0 .25.083z" class="C"/><path d="M35.917 55.249c-.278-.004-.55-.078-.791-.217s-.442-.337-.584-.575c-.16-.302-.218-.648-.166-.986s.213-.65.458-.889l5.083-5.125a1 1 0 0 1 1.333 0l4.167 4.167a.92.92 0 0 1 .25.917c-.094.328-.369.589-.708.667l-8.792 1.875-.25.166zm4.667-6.333l-4.708 4.708 7.792-1.667-3.084-3.041z" class="B"/><path d="M78.834 21.04a8.09 8.09 0 0 0-10.916-.286 8.08 8.08 0 0 0-1.241 10.848c2.462 3.391 7.105 4.341 10.698 2.187l-5.667-5.667 7.125-7.083z" class="C"/><path d="M73.209 35.706a8.83 8.83 0 0 1-8.056-5.481c-.656-1.602-.828-3.362-.495-5.061s1.157-3.263 2.37-4.499a8.92 8.92 0 0 1 12.5 0c.159.134.25.333.25.542a.72.72 0 0 1-.25.542l-6.75 6.375 5.125 5.042c.083.079.145.178.182.287s.045.225.026.338a.75.75 0 0 1-.333.542c-1.377.861-2.96 1.335-4.583 1.375l.014-.003zm0-16.167c-2.969.016-5.625 1.802-6.739 4.531s-.508 5.872 1.573 7.969a7.29 7.29 0 0 0 8.083 1.542l-4.917-4.917c-.078-.062-.141-.142-.185-.232a.67.67 0 0 1 0-.578c.043-.09.106-.169.185-.232l6.5-6.542c-1.292-.99-2.872-1.532-4.5-1.542v.002z" class="B"/><path d="M78.959 21.165l-7.125 7.083 5.667 5.667c.57-.327 1.101-.719 1.583-1.167 1.485-1.57 2.303-3.656 2.279-5.817a8.33 8.33 0 0 0-2.404-5.766z" class="C"/><path d="M77.375 34.54c-.094.005-.187-.011-.274-.047s-.164-.091-.226-.161l-5.667-5.667a.67.67 0 0 1-.185-.232c-.043-.09-.066-.189-.066-.289s.022-.199.066-.289a.67.67 0 0 1 .185-.232l7.083-6.958a.75.75 0 0 1 .625-.335.75.75 0 0 1 .625.335 8.75 8.75 0 0 1 2.626 6.25 8.75 8.75 0 0 1-2.626 6.25c-.49.52-1.052.969-1.667 1.333a.67.67 0 0 1-.5.042h.002zm-4.583-6.416l4.708 4.708a8.01 8.01 0 0 0 .917-.75c1.384-1.38 2.163-3.253 2.167-5.208.003-1.749-.634-3.439-1.792-4.75l-6 6z" class="B"/><path d="M68.5 33.625c-.564-.53-1.309-.825-2.084-.825s-1.519.295-2.084.825L45.459 52.456l3.125 3.167 19.958-17.5a3.09 3.09 0 0 0 .951-2.259 3.09 3.09 0 0 0-.994-2.241v.002z" class="C"/><path d="M48.417 56.374a.75.75 0 0 1-.5-.208l-3.167-3.167a.75.75 0 0 1 0-1.042l18.875-18.792c.544-.543 1.238-.91 1.993-1.054s1.535-.057 2.24.248 1.302.815 1.714 1.464.619 1.406.595 2.174c-.022.521-.147 1.033-.369 1.505a3.92 3.92 0 0 1-.923 1.245l-19.958 17.5a.71.71 0 0 1-.5.125v.002zm-2.208-3.919l2.083 2.125 19.583-17.042a2.3 2.3 0 0 0 .792-1.667c.019-.642-.234-1.27-.708-1.708-.437-.435-1.029-.68-1.646-.68s-1.209.245-1.646.68L46.209 52.456z" class="B"/><path d="M30.834 73.915a.42.42 0 0 0 0 .5l.833 3.625c.033.213.002.432-.091.627s-.242.358-.428.467-.401.156-.615.134-.416-.111-.576-.254l-5.708-5.5 17.792-17.933h6.167l4.167 4.167c-6.5 5.683-13.748 10.45-21.542 14.167z" class="C"/><path d="M30.459 80.04a1.76 1.76 0 0 1-1.25-.542l-5.458-5.458a.67.67 0 0 1-.185-.232c-.043-.09-.066-.189-.066-.289s.022-.199.066-.289a.67.67 0 0 1 .185-.232L41.667 55.04c.1-.107.231-.179.375-.208h6.208a.75.75 0 0 1 .5 0l4.167 4.167c.079.073.139.164.176.266s.047.21.032.317a.67.67 0 0 1-.25.542l-.333.292c-6.527 5.441-13.707 10.046-21.375 13.708l.792 3.375c.061.26.064.531.007.793s-.171.507-.335.718-.372.384-.611.504-.501.186-.769.192l.208.333zm-5.083-6.542l4.916 4.958a.25.25 0 0 0 .333 0 .25.25 0 0 0 0-.292l-.833-3.625a1.16 1.16 0 0 1 .625-1.333c7.462-3.613 14.457-8.118 20.833-13.417l-3.417-3.417H42.25L25.377 73.498z" class="B"/><path d="M19.96 77.79l4.167-4.167 6.417 6.417-10.208-.708c-.175-.014-.342-.083-.476-.197s-.228-.267-.27-.438-.028-.35.038-.513.183-.3.332-.393l-.002-.002z" class="C"/><path d="M30.667 80.665L20.5 79.957a1.61 1.61 0 0 1-1.334-1.02c-.213-.552-.083-1.206.334-1.647l4.167-4.167a.75.75 0 0 1 1.042 0l6.375 6.375c.088.121.136.267.136.416s-.048.296-.136.416a.79.79 0 0 1-.417.333v.001zM20.5 78.332l8.333.542-4.583-4.292-3.75 3.75z" class="B"/><path d="M48.792 56.084l-8.417 1.292 4.875-4.833 3.542 3.541z" class="C"/><path d="M40.375 58.165a.71.71 0 0 1-.396-.108c-.119-.074-.213-.182-.271-.309-.089-.121-.137-.267-.137-.416s.048-.296.137-.416l4.833-4.875a.79.79 0 0 1 1.083 0l3.544 3.541c.071.112.108.242.108.375s-.038.263-.108.375c-.035.137-.108.261-.212.357s-.232.16-.371.185l-8.333 1.292h.123zm4.875-4.542l-2.708 2.708 4.667-.708-1.959-2z" class="B"/><path d="M48.792 56.081l-5.875.75a.75.75 0 0 1-.819-.362.75.75 0 0 1 .111-.888l3.042-3.042 3.541 3.542z" class="C"/><path d="M42.75 57.624a1.54 1.54 0 0 1-1.333-.792 1.5 1.5 0 0 1 .25-1.792l3.042-3.042a.79.79 0 0 1 1.083 0l3.542 3.542a.75.75 0 0 1 .191.795.75.75 0 0 1-.649.497l-5.833.75-.294.042zm0-1.542l4.417-.542-1.958-1.958-2.5 2.5h.041zM79 25.958c-.079-.131-.203-.23-.349-.276s-.304-.037-.444.026c-.069.035-.13.083-.18.142a.58.58 0 0 0-.111.201.59.59 0 0 0 .041.448 1.79 1.79 0 0 1-.208 1.875.53.53 0 0 0-.12.181c-.027.068-.039.141-.037.214.001.147.057.287.156.395.107.042.226.042.333 0a.55.55 0 0 0 .294-.008c.096-.029.181-.085.248-.159.343-.42.56-.929.627-1.467s-.021-1.084-.252-1.575v.002z" class="B"/></svg>
